Breeze Round Light/actions/16/category2parent.svg

<svg xmlns="http://www.w3.org/2000/svg" viewBox="0 0 16 16">
  <defs id="defs3051">
    <style type="text/css" id="current-color-scheme">.ColorScheme-Text {color:#fcfcfc;}.ColorScheme-Highlight {color:#3daee9;}</style>
  </defs>
  <path 
        style="fill:currentColor;fill-opacity:1;stroke:none"
        d="m 2,2 c 0,0 0,8 0,10 0,2 2,2.02057 2,2.02057 L 9,14 V 13 H 4 C 4,13 3,13 3,12 3,11 3,5 3,5 h 10 v 3 h 1 V 2 H 12 V 4 H 10 V 2 H 6 V 4 H 4 V 2 Z m 8,7 v 5 h 5 V 9 h -1 v 1 H 13 V 9 h -1 v 1 H 11 V 9 Z m 1,2 h 3 v 2 h -3 z"
        class="ColorScheme-Text"
        />
  <path 
        style="fill:currentColor;fill-opacity:1;stroke:none"
        d="M 4,7 4,11 9,11 9,6 8,6 8,7 7,7 7,6 6,6 6,7 5,7 5,6 4,6 Z m 1,1 3,0 0,2 -3,0 z" 
        class="ColorScheme-Highlight"
        />
</svg>

<svg xmlns="http://www.w3.org/2000/svg" viewBox="0 0 16 16">
  <defs id="defs3051">
    <style type="text/css" id="current-color-scheme">
      .ColorScheme-Text {
        color:#232629;
      }
      .ColorScheme-Highlight {
        color:#3daee9;
      }
      </style>
  </defs>
  <path 
        style="fill:currentColor;fill-opacity:1;stroke:none"
        d="M 2 2 L 2 14 L 9 14 L 9 13 L 3 13 L 3 5 L 13 5 L 13 8 L 14 8 L 14 2 L 12 2 L 12 4 L 10 4 L 10 2 L 6 2 L 6 4 L 4 4 L 4 2 L 2 2 z M 10 9 L 10 14 L 15 14 L 15 9 L 14 9 L 14 10 L 13 10 L 13 9 L 12 9 L 12 10 L 11 10 L 11 9 L 10 9 z M 11 11 L 14 11 L 14 13 L 11 13 L 11 11 z "
        class="ColorScheme-Text"
        />
  <path 
        style="fill:currentColor;fill-opacity:1;stroke:none"
        d="M 4,7 4,11 9,11 9,6 8,6 8,7 7,7 7,6 6,6 6,7 5,7 5,6 4,6 Z m 1,1 3,0 0,2 -3,0 z" 
        class="ColorScheme-Highlight"
        />
</svg>
